src/icons/hds/ui/clock.svg

<svg xmlns="http://www.w3.org/2000/svg" width="24" height="24" viewBox="0 0 24 24">
  <g fill="none" fill-rule="evenodd">
    <rect width="24" height="24"/>
    <path fill="currentColor" d="M12,2 C17.5228475,2 22,6.4771525 22,12 C22,17.5228475 17.5228475,22 12,22 C6.4771525,22 2,17.5228475 2,12 C2,6.4771525 6.4771525,2 12,2 Z M12,4 C7.581722,4 4,7.581722 4,12 C4,16.418278 7.581722,20 12,20 C16.418278,20 20,16.418278 20,12 C20,7.581722 16.418278,4 12,4 Z M13,6 L13.0006407,11.584 L16.2426407,14.8284271 L14.8284271,16.2426407 L11.2928932,12.7071068 L11.2946407,12.706 L11.0007475,12.4137864 L11,6 L13,6 Z"/>
  </g>
</svg>

<svg viewBox="0 0 24 24" role="img" xmlns="http://www.w3.org/2000/svg"><g fill="none" fill-rule="evenodd"><path d="M0 0h24v24H0z"/><path d="M12 2c5.523 0 10 4.477 10 10s-4.477 10-10 10S2 17.523 2 12 6.477 2 12 2zm0 2a8 8 0 100 16 8 8 0 000-16zm1 2v5.584l3.243 3.244-1.415 1.415-3.535-3.536.002-.001-.294-.292L11 6h2z" fill="currentColor"/></g></svg>
